svgs/magicplan.svg

<svg width="192" height="192" viewBox="0 0 192 192" fill="none" xmlns="http://www.w3.org/2000/svg">
<path d="M62 167H31C27.6863 167 25 164.314 25 161V31C25 27.6863 27.6863 25 31 25H161C164.314 25 167 27.6863 167 31V161C167 164.314 164.314 167 161 167H130M97 121V91M97 91C97 81.0589 88.3815 72 77.75 72C67.1185 72 58.5 81.0589 58.5 91M97 91C97 81.0589 105.619 72 116.25 72C126.881 72 135.5 81.0589 135.5 91V121M58.5 73.5V91M58.5 91V121" stroke="black" stroke-width="12" stroke-linecap="round" stroke-linejoin="round"/>
</svg>

<svg xmlns="http://www.w3.org/2000/svg" width="192" height="192" fill="none"><path stroke="#000" stroke-linecap="round" stroke-linejoin="round" stroke-width="12" d="M62 167H31a6 6 0 0 1-6-6V31a6 6 0 0 1 6-6h130a6 6 0 0 1 6 6v130a6 6 0 0 1-6 6h-31m-33-46V91m0 0c0-9.941-8.618-19-19.25-19S58.5 81.059 58.5 91M97 91c0-9.941 8.619-19 19.25-19s19.25 9.059 19.25 19v30m-77-47.5V91m0 0v30"/></svg>
